packages/core/src/svgs/nord.svg

<svg width="24" height="24" viewBox="0 0 24 24" fill="none" xmlns="http://www.w3.org/2000/svg">
<g clip-path="url(#clip0_31_14946)">
<path d="M0 0H24V24H0V0Z" fill="#F0F3FA"/>
<path d="M19.3114 12.3344C19.3711 12.2783 19.4186 12.2106 19.4511 12.1354C19.4836 12.0602 19.5004 11.9792 19.5004 11.8973C19.5004 11.8153 19.4836 11.7343 19.4511 11.6591C19.4186 11.5839 19.3711 11.5162 19.3114 11.4601L12.4542 4.8944C12.3304 4.77871 12.1673 4.71436 11.9978 4.71436C11.8284 4.71436 11.6652 4.77871 11.5414 4.8944L4.68853 11.4601C4.62885 11.5162 4.5813 11.5839 4.54879 11.6591C4.51628 11.7343 4.49951 11.8153 4.49951 11.8973C4.49951 11.9792 4.51628 12.0602 4.54879 12.1354C4.5813 12.2106 4.62885 12.2783 4.68853 12.3344L5.67424 13.2773C5.92282 13.5173 6.33424 13.5173 6.5871 13.2773L11.5414 8.52868C11.6654 8.41175 11.8295 8.34663 12 8.34663C12.1704 8.34663 12.3345 8.41175 12.4585 8.52868L17.4214 13.2687C17.6742 13.513 18.0814 13.513 18.3342 13.2687L19.3114 12.3344Z" fill="#00DD9A"/>
<path d="M7.89863 15.4458C7.84006 15.3873 7.79359 15.3178 7.76189 15.2413C7.73019 15.1648 7.71387 15.0828 7.71387 15.0001C7.71387 14.9173 7.73019 14.8353 7.76189 14.7588C7.79359 14.6823 7.84006 14.6129 7.89863 14.5543L11.5543 10.8986C11.6129 10.8401 11.6823 10.7936 11.7588 10.7619C11.8353 10.7302 11.9173 10.7139 12.0001 10.7139C12.0828 10.7139 12.1648 10.7302 12.2413 10.7619C12.3178 10.7936 12.3873 10.8401 12.4458 10.8986L16.1015 14.5543C16.3458 14.7986 16.3458 15.1972 16.1015 15.4458L12.4458 19.1015C12.2015 19.3458 11.8029 19.3458 11.5543 19.1015L7.89863 15.4458Z" fill="#172683"/>
</g>
<defs>
<clipPath id="clip0_31_14946">
<rect width="24" height="24" fill="white"/>
</clipPath>
</defs>
</svg>

<svg xmlns="http://www.w3.org/2000/svg" width="24" height="24" fill="none" viewBox="0 0 24 24"><g clip-path="url(#a)"><path fill="#F0F3FA" d="M0 0h24v24H0z"/><path fill="#00DD9A" d="M19.311 12.334a.6.6 0 0 0 0-.874l-6.857-6.566a.67.67 0 0 0-.913 0L4.69 11.46a.6.6 0 0 0 0 .874l.985.943c.249.24.66.24.913 0l4.954-4.748a.67.67 0 0 1 .918 0l4.962 4.74a.66.66 0 0 0 .913 0z"/><path fill="#172683" d="M7.899 15.446a.63.63 0 0 1 0-.892l3.655-3.655a.63.63 0 0 1 .892 0l3.656 3.655a.634.634 0 0 1 0 .892l-3.656 3.656a.634.634 0 0 1-.892 0z"/></g><defs><clipPath id="a"><path fill="#fff" d="M0 0h24v24H0z"/></clipPath></defs></svg>
